X: 30169
T: Old Dock Road, The
R: reel
M: 4/4
K: Eminor
|:EFGB efge|dBAG FDAF|GEGB efge|dBAF BEED|
EFGB efge|dBAG FDAF|GEAF BGcA|AGAF GEED:|
|:eBGg ebge|dd'ab fadf|geba fdBe|dBAF BEEE|
eBGg ebge|dFAd FADF|GEAF BGcA|AGAF GEEE:|

